src/assets/images/outside-global.svg

<svg viewBox="0 0 512 512" xmlns="http://www.w3.org/2000/svg">
    <path d="m240 0c-132.546875 0-240 107.453125-240 240s107.453125 240 240 240 240-107.453125 240-240c-.148438-132.484375-107.515625-239.851562-240-240zm207.566406 324.078125-68.253906 11.777344c7.8125-28.652344 12.03125-58.164063 12.558594-87.855469h71.929687c-.902343 26.117188-6.398437 51.871094-16.234375 76.078125zm-431.367187-76.078125h71.929687c.527344 29.691406 4.746094 59.203125 12.558594 87.855469l-68.253906-11.777344c-9.835938-24.207031-15.332032-49.960937-16.234375-76.078125zm16.234375-92.078125 68.253906-11.777344c-7.8125 28.652344-12.03125 58.164063-12.558594 87.855469h-71.929687c.902343-26.117188 6.398437-51.871094 16.234375-76.078125zm215.566406-27.472656c28.746094.367187 57.421875 2.984375 85.761719 7.832031l28.238281 4.871094c8.675781 29.523437 13.34375 60.078125 13.878906 90.847656h-127.878906zm88.488281-7.9375c-29.238281-4.996094-58.828125-7.695313-88.488281-8.0625v-96c45.863281 4.40625 85.703125 46.398437 108.28125 107.511719zm-104.488281-8.0625c-29.660156.367187-59.242188 3.066406-88.480469 8.0625l-19.800781 3.425781c22.578125-61.128906 62.417969-103.136719 108.28125-107.523438zm-85.753906 23.832031c28.335937-4.847656 57.007812-7.464844 85.753906-7.832031v103.550781h-127.878906c.535156-30.769531 5.203125-61.324219 13.878906-90.847656zm-42.125 111.71875h127.878906v103.550781c-28.746094-.367187-57.421875-2.984375-85.761719-7.832031l-28.238281-4.871094c-8.675781-29.523437-13.34375-60.078125-13.878906-90.847656zm39.390625 111.488281c29.238281 5.003907 58.824219 7.714844 88.488281 8.105469v96c-45.863281-4.410156-85.703125-46.402344-108.28125-107.515625zm104.488281 8.105469c29.660156-.390625 59.242188-3.101562 88.480469-8.105469l19.800781-3.425781c-22.578125 61.128906-62.417969 103.136719-108.28125 107.523438zm85.753906-23.875c-28.335937 4.847656-57.007812 7.464844-85.753906 7.832031v-103.550781h127.878906c-.535156 30.769531-5.203125 61.324219-13.878906 90.847656zm58.117188-111.71875c-.527344-29.691406-4.746094-59.203125-12.558594-87.855469l68.253906 11.777344c9.835938 24.207031 15.332032 49.960937 16.234375 76.078125zm47.601562-93.710938-65.425781-11.289062c-11.761719-38.371094-33.765625-72.808594-63.648437-99.601562 55.878906 18.648437 102.21875 58.457031 129.074218 110.890624zm-269.871094-110.890624c-29.882812 26.792968-51.886718 61.230468-63.648437 99.601562l-65.425781 11.289062c26.855468-52.433593 73.195312-92.242187 129.074218-110.890624zm-129.074218 314.3125 65.425781 11.289062c11.761719 38.371094 33.765625 72.808594 63.648437 99.601562-55.878906-18.648437-102.21875-58.457031-129.074218-110.890624zm269.871094 110.890624c29.882812-26.792968 51.886718-61.230468 63.648437-99.601562l65.425781-11.289062c-26.855468 52.433593-73.195312 92.242187-129.074218 110.890624zm0 0"/>
</svg>

<svg width="480" height="480" viewBox="0 0 480 480" fill="none" xmlns="http://www.w3.org/2000/svg">
<path d="M240 0C107.453 0 0 107.453 0 240C0 372.547 107.453 480 240 480C372.547 480 480 372.547 480 240C479.852 107.516 372.484 0.148438 240 0ZM447.566 324.078L379.312 335.855C387.125 307.203 391.344 277.691 391.871 248H463.801C462.898 274.117 457.402 299.871 447.566 324.078V324.078ZM16.1992 248H88.1289C88.6563 277.691 92.875 307.203 100.688 335.855L32.4336 324.078C22.5977 299.871 17.1016 274.117 16.1992 248ZM32.4336 155.922L100.688 144.145C92.875 172.797 88.6563 202.309 88.1289 232H16.1992C17.1016 205.883 22.5977 180.129 32.4336 155.922ZM248 128.449C276.746 128.816 305.422 131.434 333.762 136.281L362 141.152C370.676 170.676 375.344 201.23 375.879 232H248V128.449ZM336.488 120.512C307.25 115.516 277.66 112.816 248 112.449V16.4492C293.863 20.8555 333.703 62.8477 356.281 123.961L336.488 120.512ZM232 112.449C202.34 112.816 172.758 115.516 143.52 120.512L123.719 123.938C146.297 62.8086 186.137 20.8008 232 16.4141V112.449ZM146.246 136.281C174.582 131.434 203.254 128.816 232 128.449V232H104.121C104.656 201.23 109.324 170.676 118 141.152L146.246 136.281ZM104.121 248H232V351.551C203.254 351.184 174.578 348.566 146.238 343.719L118 338.848C109.324 309.324 104.656 278.77 104.121 248V248ZM143.512 359.488C172.75 364.492 202.336 367.203 232 367.594V463.594C186.137 459.184 146.297 417.191 123.719 356.078L143.512 359.488ZM248 367.594C277.66 367.203 307.242 364.492 336.48 359.488L356.281 356.062C333.703 417.191 293.863 459.199 248 463.586V367.594ZM333.754 343.719C305.418 348.566 276.746 351.184 248 351.551V248H375.879C375.344 278.77 370.676 309.324 362 338.848L333.754 343.719ZM391.871 232C391.344 202.309 387.125 172.797 379.312 144.145L447.566 155.922C457.402 180.129 462.898 205.883 463.801 232H391.871ZM439.473 138.289L374.047 127C362.285 88.6289 340.281 54.1914 310.398 27.3984C366.277 46.0469 412.617 85.8555 439.473 138.289ZM169.602 27.3984C139.719 54.1914 117.715 88.6289 105.953 127L40.5273 138.289C67.3828 85.8555 113.723 46.0469 169.602 27.3984ZM40.5273 341.711L105.953 353C117.715 391.371 139.719 425.809 169.602 452.602C113.723 433.953 67.3828 394.145 40.5273 341.711ZM310.398 452.602C340.281 425.809 362.285 391.371 374.047 353L439.473 341.711C412.617 394.145 366.277 433.953 310.398 452.602Z" fill="#E2F3F5"/>
</svg>
